Adwaita++/apps/scalable/goobox.svg

<svg enable-background="new" height="128" viewBox="0 0 128 128" width="128" xmlns="http://www.w3.org/2000/svg">
  <path d="m63.923816 4.1523653c-33.197789 0-59.923816 26.7260207-59.923816 59.9238237 0 33.197792 26.726027 59.923811 59.923816 59.923811 33.197795 0 59.923814-26.726019 59.923814-59.923811 0-33.197803-26.726019-59.9238237-59.923814-59.9238237zm0 34.2421837a25.681636 25.681636 0 0 1 25.681632 25.68164 25.681636 25.681636 0 0 1 -25.681632 25.68164 25.681636 25.681636 0 0 1 -25.681633-25.68164 25.681636 25.681636 0 0 1 25.681633-25.68164z" opacity=".2"/>
  <path d="m63.923842 30.821767a32.102043 32.102041 0 0 0 -32.102046 32.102041 32.102043 32.102041 0 0 0 32.102046 32.102043 32.102043 32.102041 0 0 0 32.102039-32.102043 32.102043 32.102041 0 0 0 -32.102039-32.102041zm0 19.261224c7.091984 0 12.840813 5.748835 12.840813 12.840817 0 7.091983-5.748829 12.840818-12.840813 12.840818-7.091985 0-12.840819-5.748835-12.840819-12.840818 0-7.091982 5.748834-12.840817 12.840819-12.840817z" fill="#848484"/>
  <path d="m63.923842 2.9999958c-33.197791 0-59.923817 26.7260202-59.923817 59.9238122 0 33.197793 26.726026 59.923812 59.923817 59.923812 33.197789 0 59.923818-26.726019 59.923818-59.923812 0-33.197792-26.726029-59.9238122-59.923818-59.9238122zm0 34.2421792a25.681636 25.681633 0 0 1 25.681632 25.681633 25.681636 25.681633 0 0 1 -25.681632 25.681635 25.681636 25.681633 0 0 1 -25.681635-25.681635 25.681636 25.681633 0 0 1 25.681635-25.681633z" fill="#e4e4e4"/>
  <path d="m121.00977 81.201172c.04534-.142579.10803-.276876.15234-.419922.05868-.189456.09158-.389811.14844-.580078h-38.425784a25.681636 25.681633 0 0 1 -.931641 1z" opacity=".1"/>
  <path d="m6.5371094 80.201172c.056854.190267.0897567.390622.1484375.580078.044306.143046.1070014.277343.1523437.419922h39.0761714a25.681636 25.681633 0 0 1 -.414062-.384766 25.681636 25.681633 0 0 1 -.541016-.615234z" opacity=".1"/>
  <path d="m118.09375 88.5c.15762-.334645.32693-.66196.47852-1h-47.267582a25.681636 25.681633 0 0 1 -.511719.169922 25.681636 25.681633 0 0 1 -2.503907.5625 25.681636 25.681633 0 0 1 -2.210937.267578z" opacity=".1"/>
  <path d="m9.2753906 87.5c.1515808.33804.3208964.665355.4785156 1h52.0722658a25.681636 25.681633 0 0 1 -.466797-.023438 25.681636 25.681633 0 0 1 -2.537109-.382812 25.681636 25.681633 0 0 1 -2.328125-.59375z" opacity=".1"/>
  <path d="m30.1875 112.5c.064712.04402.122606.09686.1875.14062.456878.30816.95022.56363 1.416016.85938h64.265625c.465796-.29575.959137-.55122 1.416015-.85938.064894-.04376.122789-.0966.1875-.14062z" opacity=".1"/>
  <path d="m18.9375 102.5c.297582.33826.603147.66861.908203 1h88.156247c.30506-.33139.61062-.66174.90821-1z" opacity=".1"/>
  <path d="m13.507812 95.318359c.210363.327587.388933.67686.605469 1h99.621099c.21653-.32314.3951-.672413.60546-1z" opacity=".1"/>
  <path d="m110 68s-16.848049.039044-18.261719.089844c-.23869-.02178-.317265.004435-.322265.109375-.00401.07581.462646 4.315745 1.035156 9.421875.57251 5.10615 1.030631 9.376644 1.019531 9.490234-.01668.17004-.222599.069661-1.167969-.574219-1.36402-.92902-2.25233-1.330002-3.34375-1.507812-2.812091-.45815-4.923774 1.301607-4.865234 4.054687.068716 3.23147 4.245301 6.242947 7.712891 5.560547 2.03526-.40053 3.342984-2.313093 3.333984-4.876953-.00112-.33107-.213406-2.437061-.472656-4.68164-.99171-8.586641-1.121101-9.920054-.957031-9.939454.16015-.01896 15.793152.853197 16.207032.904297.23448.02892.2411.078962.91406 5.732422.37334 3.13626.65535 5.745728.62695 5.798828-.02837.05315-.72046-.266144-1.53906-.708984-2.29319-1.24054-3.57619-1.481894-5.26758-.990235-1.23579.35941-1.84178.820357-2.38672 1.810547-1.16098 2.10956-.09813 4.916367 2.44922 6.466797 3.7947 2.23756 8.73932 1.528171 8.54102-3.730468-.05616-.61637-.31431-2.759742-.57227-4.763672-.25796-2.00394-.83246-6.654205-1.27734-10.333985-.44487-3.67978-1.36475-7.309231-1.40625-7.332031zm-16.761719 3.435547c.20206-.03089 16.276779.608191 16.359379.650391.04699.02403.1332.450042.1914.945312.05824.49528.12419 1.054791.14649 1.244141.02228.18936-.01549.356893-.08399.371093-.13591.02803-16.332388-.909418-16.400388-.949218-.0975-.05709-.303691-2.247819-.212891-2.261719zm-63.238281 11.263672c-3.198147 0-6.095604.644161-8.212891 1.699219-1.571732.783202-2.729279 1.80503-3.222656 2.976562a17.204488 15.292879 0 0 1 .976563-.714844c.554594-.68847 1.384028-1.319795 2.451172-1.851562 2.033912-1.013503 4.871441-1.648438 8.007812-1.648438v24.839844h1v-24.814453c2.736433.119307 5.192676.71856 7.007812 1.623047 1.18719.591588 2.079441 1.305856 2.625 2.085937a17.204488 15.292879 0 0 1 .863282.660157c-.447169-1.245838-1.632531-2.333707-3.283203-3.15625-2.117288-1.055058-5.014744-1.699219-8.212891-1.699219zm-17.433594 5.048828c-.936081-.010792-1.966717.2181-2.910156.548828.506522 1.086065.986205 2.187253 1.554688 3.236328.611813 1.129042 1.311409 2.199808 1.992187 3.283203.837724-.385247 1.583498-.889631 2.097656-1.607422.354861-.49509.73815-1.490527.78125-2.029296.088083-1.101141-.288463-2.032738-1.082031-2.679688-.17345-.14139-.498987-.293363-1.023438-.476562-.645815-.225601-.870778-.269391-1.410156-.275391zm37.433594.251953c-1.694067-.01953-3.851358.66309-4.839844 1.53125-1.028205.90305-1.475027 2.024584-1.591797 3.996094.00855.04053.02205.068622.03125.107422v21.777344h1v-20.171876c.220216.12578.400391.171875.400391.171875.087858.01583.453788.084244.8125.152344 2.96336.56253 5.579949-.232845 6.919922-2.103515.354862-.495091.73815-1.490527.78125-2.029297.088084-1.10114-.28651-2.032738-1.080078-2.679688h-.001953c-.17345-.14139-.497035-.291409-1.021485-.474609-.645817-.22564-.870778-.271344-1.410156-.277344zm8 1.599609a2.5 2.5 0 0 0 -2.5 2.5 2.5 2.5 0 0 0 2.5 2.5 2.5 2.5 0 0 0 2.5-2.5 2.5 2.5 0 0 0 -2.5-2.5zm19.568359 2.648438c-1.694067-.02191-3.851357.744816-4.839843 1.71875-1.028205 1.013076-1.475027 2.270708-1.591797 4.482422.00855.045469.02205.077564.03125.121093v23.802738c.574438-.06877 1.135852-.17499 1.705078-.25977.203477-.4076.430457-.86329.580078-1.17773.687236-1.44438 1.540479-2.61442 3.285156-4.50782 1.760066-1.91011 2.985963-3.80616 3.660157-5.66406.375805-1.03562.496533-2.10357.322265-2.84765l-.111328-.47266-.164063.20898c-.090328.11427-.510852 1.00389-.935546 1.97852-.92323 2.11871-1.26103 2.74889-1.855469 3.46289-.902504 1.08403-3.021327 2.76856-4.560547 3.625-.386469.13798-.685363.33735-.925781.57422v-16.92188c.219768.14052.40039.19141.40039.19141.087858.01776.453788.09546.8125.17188 2.96336.63106 5.579948-.26079 6.919922-2.35938.354861-.55541.73815-1.672931.78125-2.277344.088083-1.2353-.28651-2.280086-1.080078-3.005859h-.001953c-.17345-.158616-.497034-.327682-1.021484-.533203-.645817-.25313-.870779-.303847-1.410157-.310547z" fill="#ababab"/>
</svg>

<svg xmlns="http://www.w3.org/2000/svg" xmlns:xlink="http://www.w3.org/1999/xlink" style="enable-background:new" width="128" height="128" version="1.0" viewBox="0 0 128 128">
 <title id="title4162">
  Adwaita Icon Template
 </title>
 <defs>
  <linearGradient id="linearGradient950">
   <stop style="stop-color:#9a9996" id="stop946" offset="0"/>
   <stop style="stop-color:#77767b" id="stop948" offset="1"/>
  </linearGradient>
  <linearGradient id="linearGradient1001" x1="1660.857" x2="1662.99" y1="806.297" y2="812.882" gradientTransform="matrix(1.8293937,-0.81599442,0.81599442,1.8293937,-3645.9624,100.02949)" gradientUnits="userSpaceOnUse" xlink:href="#linearGradient950"/>
 </defs>
 <path style="opacity:0.2" d="M 63.923816,4.1523653 C 30.726027,4.1523653 4,30.878386 4,64.076189 4,97.273981 30.726027,124 63.923816,124 97.121611,124 123.84763,97.273981 123.84763,64.076189 123.84763,30.878386 97.121611,4.1523653 63.923816,4.1523653 Z m 0,34.2421837 a 25.681636,25.681636 0 0 1 25.681632,25.68164 25.681636,25.681636 0 0 1 -25.681632,25.68164 25.681636,25.681636 0 0 1 -25.681633,-25.68164 25.681636,25.681636 0 0 1 25.681633,-25.68164 z"/>
 <path style="fill:#848484" d="M 63.923842,30.821767 A 32.102043,32.102041 0 0 0 31.821796,62.923808 32.102043,32.102041 0 0 0 63.923842,95.025851 32.102043,32.102041 0 0 0 96.025881,62.923808 32.102043,32.102041 0 0 0 63.923842,30.821767 Z m 0,19.261224 c 7.091984,0 12.840813,5.748835 12.840813,12.840817 0,7.091983 -5.748829,12.840818 -12.840813,12.840818 -7.091985,0 -12.840819,-5.748835 -12.840819,-12.840818 0,-7.091982 5.748834,-12.840817 12.840819,-12.840817 z"/>
 <path style="fill:#e4e4e4" d="m 63.923842,2.9999958 c -33.197791,0 -59.923817,26.7260202 -59.923817,59.9238122 0,33.197793 26.726026,59.923812 59.923817,59.923812 33.197789,0 59.923818,-26.726019 59.923818,-59.923812 0,-33.197792 -26.726029,-59.9238122 -59.923818,-59.9238122 z m 0,34.2421792 A 25.681636,25.681633 0 0 1 89.605474,62.923808 25.681636,25.681633 0 0 1 63.923842,88.605443 25.681636,25.681633 0 0 1 38.242207,62.923808 25.681636,25.681633 0 0 1 63.923842,37.242175 Z"/>
 <path style="opacity:0.1" d="M 121.00977 81.201172 C 121.05511 81.058593 121.1178 80.924296 121.16211 80.78125 C 121.22079 80.591794 121.25369 80.391439 121.31055 80.201172 L 82.884766 80.201172 A 25.681636 25.681633 0 0 1 81.953125 81.201172 L 121.00977 81.201172 z"/>
 <path style="opacity:0.1" d="M 6.5371094 80.201172 C 6.5939634 80.391439 6.6268661 80.591794 6.6855469 80.78125 C 6.7298529 80.924296 6.7925483 81.058593 6.8378906 81.201172 L 45.914062 81.201172 A 25.681636 25.681633 0 0 1 45.5 80.816406 A 25.681636 25.681633 0 0 1 44.958984 80.201172 L 6.5371094 80.201172 z"/>
 <path style="opacity:0.1" d="M 118.09375 88.5 C 118.25137 88.165355 118.42068 87.83804 118.57227 87.5 L 71.304688 87.5 A 25.681636 25.681633 0 0 1 70.792969 87.669922 A 25.681636 25.681633 0 0 1 68.289062 88.232422 A 25.681636 25.681633 0 0 1 66.078125 88.5 L 118.09375 88.5 z"/>
 <path style="opacity:0.1" d="M 9.2753906 87.5 C 9.4269714 87.83804 9.596287 88.165355 9.7539062 88.5 L 61.826172 88.5 A 25.681636 25.681633 0 0 1 61.359375 88.476562 A 25.681636 25.681633 0 0 1 58.822266 88.09375 A 25.681636 25.681633 0 0 1 56.494141 87.5 L 9.2753906 87.5 z"/>
 <path style="opacity:0.1" d="M 30.1875 112.5 C 30.252212 112.54402 30.310106 112.59686 30.375 112.64062 C 30.831878 112.94878 31.32522 113.20425 31.791016 113.5 L 96.056641 113.5 C 96.522437 113.20425 97.015778 112.94878 97.472656 112.64062 C 97.53755 112.59686 97.595445 112.54402 97.660156 112.5 L 30.1875 112.5 z"/>
 <path style="opacity:0.1" d="M 18.9375 102.5 C 19.235082 102.83826 19.540647 103.16861 19.845703 103.5 L 108.00195 103.5 C 108.30701 103.16861 108.61257 102.83826 108.91016 102.5 L 18.9375 102.5 z"/>
 <path style="opacity:0.1" d="M 13.507812 95.318359 C 13.718175 95.645946 13.896745 95.995219 14.113281 96.318359 L 113.73438 96.318359 C 113.95091 95.995219 114.12948 95.645946 114.33984 95.318359 L 13.507812 95.318359 z"/>
 <path style="fill:#ababab" d="M 110 68 C 110 68 93.151951 68.039044 91.738281 68.089844 C 91.499591 68.068064 91.421016 68.094279 91.416016 68.199219 C 91.412006 68.275029 91.878662 72.514964 92.451172 77.621094 C 93.023682 82.727244 93.481803 86.997738 93.470703 87.111328 C 93.454023 87.281368 93.248104 87.180989 92.302734 86.537109 C 90.938714 85.608089 90.050404 85.207107 88.958984 85.029297 C 86.146893 84.571147 84.03521 86.330904 84.09375 89.083984 C 84.162466 92.315454 88.339051 95.326931 91.806641 94.644531 C 93.841901 94.244001 95.149625 92.331438 95.140625 89.767578 C 95.139505 89.436508 94.927219 87.330517 94.667969 85.085938 C 93.676259 76.499297 93.546868 75.165884 93.710938 75.146484 C 93.871088 75.127524 109.50409 75.999681 109.91797 76.050781 C 110.15245 76.079701 110.15907 76.129743 110.83203 81.783203 C 111.20537 84.919463 111.48738 87.528931 111.45898 87.582031 C 111.43061 87.635181 110.73852 87.315887 109.91992 86.873047 C 107.62673 85.632507 106.34373 85.391153 104.65234 85.882812 C 103.41655 86.242222 102.81056 86.703169 102.26562 87.693359 C 101.10464 89.802919 102.16749 92.609726 104.71484 94.160156 C 108.50954 96.397716 113.45416 95.688327 113.25586 90.429688 C 113.1997 89.813318 112.94155 87.669946 112.68359 85.666016 C 112.42563 83.662076 111.85113 79.011811 111.40625 75.332031 C 110.96138 71.652251 110.0415 68.0228 110 68 z M 93.238281 71.435547 C 93.440341 71.404657 109.51506 72.043738 109.59766 72.085938 C 109.64465 72.109968 109.73086 72.53598 109.78906 73.03125 C 109.8473 73.52653 109.91325 74.086041 109.93555 74.275391 C 109.95783 74.464751 109.92006 74.632284 109.85156 74.646484 C 109.71565 74.674514 93.519172 73.737066 93.451172 73.697266 C 93.353672 73.640176 93.147481 71.449447 93.238281 71.435547 z M 30 82.699219 C 26.801853 82.699219 23.904396 83.34338 21.787109 84.398438 C 20.215377 85.18164 19.05783 86.203468 18.564453 87.375 A 17.204488 15.292879 0 0 1 19.541016 86.660156 C 20.09561 85.971686 20.925044 85.340361 21.992188 84.808594 C 24.0261 83.795091 26.863629 83.160156 30 83.160156 L 30 108 L 31 108 L 31 83.185547 C 33.736433 83.304854 36.192676 83.904107 38.007812 84.808594 C 39.195002 85.400182 40.087253 86.11445 40.632812 86.894531 A 17.204488 15.292879 0 0 1 41.496094 87.554688 C 41.048925 86.30885 39.863563 85.220981 38.212891 84.398438 C 36.095603 83.34338 33.198147 82.699219 30 82.699219 z M 12.566406 87.748047 C 11.630325 87.737255 10.599689 87.966147 9.65625 88.296875 C 10.162772 89.38294 10.642455 90.484128 11.210938 91.533203 C 11.822751 92.662245 12.522347 93.733011 13.203125 94.816406 C 14.040849 94.431159 14.786623 93.926775 15.300781 93.208984 C 15.655642 92.713894 16.038931 91.718457 16.082031 91.179688 C 16.170114 90.078547 15.793568 89.14695 15 88.5 C 14.82655 88.35861 14.501013 88.206637 13.976562 88.023438 C 13.330747 87.797837 13.105784 87.754047 12.566406 87.748047 z M 50 88 C 48.305933 87.98047 46.148642 88.66309 45.160156 89.53125 C 44.131951 90.4343 43.685129 91.555834 43.568359 93.527344 C 43.576909 93.567874 43.590409 93.595966 43.599609 93.634766 L 43.599609 115.41211 L 44.599609 115.41211 L 44.599609 95.240234 C 44.819825 95.366014 45 95.412109 45 95.412109 C 45.087858 95.427939 45.453788 95.496353 45.8125 95.564453 C 48.77586 96.126983 51.392449 95.331608 52.732422 93.460938 C 53.087284 92.965847 53.470572 91.970411 53.513672 91.431641 C 53.601756 90.330501 53.227162 89.398903 52.433594 88.751953 L 52.431641 88.751953 C 52.258191 88.610563 51.934606 88.460544 51.410156 88.277344 C 50.764339 88.051704 50.539378 88.006 50 88 z M 58 89.599609 A 2.5 2.5 0 0 0 55.5 92.099609 A 2.5 2.5 0 0 0 58 94.599609 A 2.5 2.5 0 0 0 60.5 92.099609 A 2.5 2.5 0 0 0 58 89.599609 z M 77.568359 92.248047 C 75.874292 92.226137 73.717002 92.992863 72.728516 93.966797 C 71.700311 94.979873 71.253489 96.237505 71.136719 98.449219 C 71.145269 98.494688 71.158769 98.526783 71.167969 98.570312 L 71.167969 122.37305 C 71.742407 122.30428 72.303821 122.19806 72.873047 122.11328 C 73.076524 121.70568 73.303504 121.24999 73.453125 120.93555 C 74.140361 119.49117 74.993604 118.32113 76.738281 116.42773 C 78.498347 114.51762 79.724244 112.62157 80.398438 110.76367 C 80.774243 109.72805 80.894971 108.6601 80.720703 107.91602 L 80.609375 107.44336 L 80.445312 107.65234 C 80.354984 107.76661 79.93446 108.65623 79.509766 109.63086 C 78.586536 111.74957 78.248736 112.37975 77.654297 113.09375 C 76.751793 114.17778 74.63297 115.86231 73.09375 116.71875 C 72.707281 116.85673 72.408387 117.0561 72.167969 117.29297 L 72.167969 100.37109 C 72.387737 100.51161 72.568359 100.5625 72.568359 100.5625 C 72.656217 100.58026 73.022147 100.65796 73.380859 100.73438 C 76.344219 101.36544 78.960807 100.47359 80.300781 98.375 C 80.655642 97.81959 81.038931 96.702069 81.082031 96.097656 C 81.170114 94.862356 80.795521 93.81757 80.001953 93.091797 L 80 93.091797 C 79.82655 92.933181 79.502966 92.764115 78.978516 92.558594 C 78.332699 92.305464 78.107737 92.254747 77.568359 92.248047 z"/>
</svg>
